**kern	**silbe	**kern	**silbe
*ICvox	*	*ICvox	*
*E:	*	*E:	*
*M4/4	*	*M4/4	*
*clefG2	*	*clefG2	*
1r	.	r;	.
=1	=1	=1	=1
1r	.	1r	.
=2	=2	=2	=2
1r	.	1r	.
=3	=3	=3	=3
1r	.	1r	.
=4	=4	=4	=4
1r	.	1r	.
=5	=5	=5	=5
4.r	.	1r	.
8e	The	.	.
4e	night	.	.
4d#	we	.	.
=6	=6	=6	=6
4d#	met	1r	.
4c#	I	.	.
4d#	knew	.	.
4e	I	.	.
=7	=7	=7	=7
2r	.	1r	.
8f#	need-	.	.
8f#	-ed	.	.
4e	you	.	.
=8	=8	=8	=8
4d#	so	1r	.
4r	.	.	.
2r	.	.	.
=9	=9	=9	=9
4r	.	1r	.
8r	.	.	.
8e	And	.	.
8e	if	.	.
4.d#	I	.	.
=10	=10	=10	=10
4d#	had	1r	.
8c#	the	.	.
[8d#	chance	.	.
4d#]	_	.	.
4e	I'd	.	.
=11	=11	=11	=11
4r	.	1r	.
8f#	ne-	.	.
8e	-ver	.	.
4f#	let	.	.
4e	you	.	.
=12	=12	=12	=12
4d#	go	1r	.
4r	.	.	.
2r	.	.	.
=13	=13	=13	=13
4r	.	1r	.
8r	.	.	.
8g#	So	.	.
4f##	won't	.	.
8g#	you	.	.
[8a	say	.	.
=14	=14	=14	=14
8a]	_	1r	.
4g#	you	.	.
[8f##	love	.	.
8f	_	.	.
4.g#	me	.	.
=15	=15	=15	=15
4r	.	1r	.
8r	.	.	.
[8g#	I'll	.	.
8g#]	_	.	.
8.f##]	make	.	.
8.g#	you	.	.
=16	=16	=16	=16
4.a	so	1r	.
8g#	proud	.	.
8e#	of	.	.
4.c#	me	.	.
=17	=17	=17	=17
4r	.	1r	.
8r	.	.	.
8f#	We'll	.	.
8e#	make	.	.
4f#	'em	.	.
[8g	turn	.	.
=18	=18	=18	=18
8g]	_	1r	.
4f#	their	.	.
[8e	heads	.	.
8e]	_	.	.
8r	.	.	.
4r	.	.	.
=19	=19	=19	=19
4d#	ev-	1r	.
4d#	-ery	.	.
4e	place	.	.
8d#	we	.	.
8f#	go	.	.
=20	=20	=20	=20
4r	.	1r	.
4d#	So	.	.
4e	won't	.	.
8f#	you	.	.
[8g#	please	.	.
=21	=21	=21	=21
8g#]	_	4r	.
8r	.	.	.
4r	.	4e	Be
2r	.	2d#	my
=22	=22	=22	=22
4.r	.	8c#	Be
.	.	4c#	my
16r	.	[8d#	ba-
[16g#	Be	.	.
16g#]	_	4d#]	_
8.f#	my	.	.
16e	li-	8e	-by
8f#	-ttle	.	.
.	.	8r	.
[16g#	ba-	.	.
=23	=23	=23	=23
8g#]	_	4r	.
[4.e	-by	.	.
.	.	4e	My
4e]	_	4.d#	one
4r	.	.	.
.	.	8d#	and
=24	=24	=24	=24
4.r	.	4c#	on-
.	.	8c#	-ly
16r	.	[8d#	ba-
[16g#	Say	.	.
16g#]	_	4d#]	_
8f#	you'll	.	.
8e	be	.	.
.	.	8e	-by
8f#	my	.	.
.	.	8r	.
16f#	dar-	.	.
=25	=25	=25	=25
16g#	_	4r	.
16f#	_	.	.
16e	_	.	.
8.f#	_	.	.
.	.	4e	Be
[8d#	-ling	.	.
4d#]	_	2d#	my
4r	.	.	.
=26	=26	=26	=26
4.r	.	8c#	Be
.	.	4c#	my
8a	Be	[8d#	ba-
6a	my	4d#]	_
6g#	ba-	.	.
.	.	8e	-by
6f#	-by	.	.
.	.	8r	.
=27	=27	=27	=27
4.a	now	4r	.
.	.	4e	My
16g#	_	.	.
16a	_	.	.
4f#	_	4.d#	one
8r	.	.	.
8a	Ooh	8d#	and
=28	=28	=28	=28
4b	Woh	4c#	on-
4a	oh	8c#	-ly
.	.	8f#	ba-
4g#	oh	4g#	_
4f#	oh	8f#	-by
.	.	8r	.
=29	=29	=29	=29
2r	.	1r	.
8r	.	.	.
8e	I'll	.	.
8e	make	.	.
8d#	you	.	.
=30	=30	=30	=30
8.d#	ha-	1r	.
8.c#	-ppy	.	.
8.d#	ba-	.	.
[8.e	-by	.	.
8e]	_	.	.
8r	.	.	.
=31	=31	=31	=31
4.r	.	1r	.
[8f#	Just	.	.
8f#]	_	.	.
8f#	wait	.	.
4e	and	.	.
=32	=32	=32	=32
4d#	see	1r	.
4r	.	.	.
2r	.	.	.
=33	=33	=33	=33
4r	.	1r	.
8r	.	.	.
8e	For	.	.
4e	ev-	.	.
4d#	-ery	.	.
=34	=34	=34	=34
4d#	kiss	1r	.
8r	.	.	.
8c#	you	.	.
8d#	give	.	.
4.e	me	.	.
=35	=35	=35	=35
4.r	.	1r	.
[8f#	I'll	.	.
8f#]	_	.	.
8f#	give	.	.
4e	you	.	.
=36	=36	=36	=36
4d#	three	1r	.
4r	.	.	.
2r	.	.	.
=37	=37	=37	=37
4.r	.	1r	.
[8g#	Oh	.	.
8g#]	_	.	.
8f##	since	.	.
8g#	the	.	.
[8a	day	.	.
=38	=38	=38	=38
8a]	_	1r	.
4g#	I	.	.
[8f##	saw	.	.
8f	_	.	.
4.g#	you	.	.
=39	=39	=39	=39
4.r	.	1r	.
8.g#	I	.	.
8.f##]	have	.	.
8.g#	been	.	.
[16a	wai-	.	.
=40	=40	=40	=40
8a]	_	1r	.
4g#	-ting	.	.
[8e#	for	.	.
8e#]	_	.	.
4.c#	you	.	.
=41	=41	=41	=41
4r	.	1r	.
8r	.	.	.
8f#	You	.	.
8e#	know	.	.
4f#	I	.	.
[8g	will	.	.
=42	=42	=42	=42
8g]	_	1r	.
4f#	a-	.	.
8e	-dore	.	.
8c#	_	.	.
8c#	you	.	.
4r	.	.	.
=43	=43	=43	=43
4d#	till	1r	.
4d#	e-	.	.
8e	-tern-	.	.
4e#	-i-	.	.
[8f#	-ty	.	.
=44	=44	=44	=44
8f#]	_	1r	.
8r	.	.	.
4g#	So	.	.
4b	won't	.	.
4g#	you	.	.
=45	=45	=45	=45
8f#	please	4r	.
4.e	_	.	.
.	.	4e	Be
2r	.	2d#	my
=46	=46	=46	=46
4.r	.	8c#	Be
.	.	4c#	my
16r	.	[8d#	ba-
[16g#	Be	.	.
16g#]	_	4d#]	_
8.f#	my	.	.
16e	li-	8e	-by
8f#	-ttle	.	.
.	.	8r	.
[16g#	ba-	.	.
=47	=47	=47	=47
8g#]	_	4r	.
[4.e	-by	.	.
.	.	4e	My
4.e]	_	4.d#	one
8r	.	8d#	and
=48	=48	=48	=48
4.r	.	4c#	on-
.	.	8c#	-ly
16r	.	[8d#	ba-
[16g#	Say	.	.
16g#]	_	4d#]	_
8f#	you'll	.	.
8e	be	.	.
.	.	8e	-by
8f#	my	.	.
.	.	8r	.
16f#	dar-	.	.
=49	=49	=49	=49
16g#	_	4r	.
16f#	_	.	.
16e	_	.	.
8f#	_	.	.
.	.	4e	Be
16e	_	.	.
[8d#	-ling	.	.
4d#]	_	2d#	my
4r	.	.	.
=50	=50	=50	=50
4.r	.	8c#	Be
.	.	4c#	my
8a	Be	[8d#	ba-
6a	my	4d#]	_
6g#	ba-	.	.
.	.	8e	-by
6f#	-by	.	.
.	.	8r	.
=51	=51	=51	=51
4.a	now	4r	.
.	.	4e	My
16g#	_	.	.
16a	_	.	.
4f#	_	4.d#	one
8r	.	.	.
8a	Ooh	8d#	and
=52	=52	=52	=52
4b	Woh	4c#	on-
4a	oh	8c#	-ly
.	.	8f#	ba-
4g#	oh	4g#	_
16g#	oh	8f#	-by
8.f#	_	.	.
.	.	8r	.
=53	=53	=53	=53
2e	oh	1r	.
2r	.	.	.
=54	=54	=54	=54
1r	.	1r	.
=55	=55	=55	=55
1r	.	1r	.
=56	=56	=56	=56
1r	.	1r	.
=57	=57	=57	=57
1r	.	1r	.
=58	=58	=58	=58
1r	.	1r	.
=59	=59	=59	=59
1r	.	1r	.
=60	=60	=60	=60
4.r	.	1r	.
8g#	So	.	.
8b	come	.	.
4g#	on	.	.
8g#	and	.	.
=61	=61	=61	=61
8f#	please	4r	.
8e	_	.	.
8f#	_	4e	Be
8e	_	.	.
2r	.	2d#	my
=62	=62	=62	=62
4.r	.	8c#	Be
.	.	4c#	my
16r	.	[8d#	ba-
[16g#	Be	.	.
16g#]	_	4d#]	_
8.f#	my	.	.
16e	li-	8e	-by
8f#	-ttle	.	.
.	.	8r	.
[16g#	ba-	.	.
=63	=63	=63	=63
8g#]	_	4r	.
[4.e	-by	.	.
.	.	4e	My
2e]	_	4.d#	one
.	.	8d#	and
=64	=64	=64	=64
4.r	.	4c#	on-
.	.	8c#	-ly
16r	.	[8d#	ba-
[16g#	Say	.	.
16g#]	_	4d#]	_
8f#	you'll	.	.
8e	be	.	.
.	.	8e	-by
8f#	my	.	.
.	.	8r	.
16f#	dar-	.	.
=65	=65	=65	=65
16g#	_	4r	.
16f#	_	.	.
16e	_	.	.
8f#	_	.	.
.	.	4e	Be
16e	_	.	.
[8d#	-ling	.	.
2d#]	_	2d#	my
=66	=66	=66	=66
4.r	.	8c#	Be
.	.	4c#	my
8a	Be	[8d#	ba-
6a	my	4d#]	_
6g#	ba-	.	.
.	.	8e	-by
6f#	-by	.	.
.	.	8r	.
=67	=67	=67	=67
4.a	now	4r	.
.	.	4e	My
16g#	_	.	.
16a	_	.	.
4f#	_	4.d#	one
4r	.	.	.
.	.	8d#	and
=68	=68	=68	=68
4b	Woh	4c#	on-
4a	oh	8c#	-ly
.	.	8f#	ba-
4g#	oh	4g#	_
4f#	oh	8f#	-by
.	.	8r	.
=69	=69	=69	=69
1r	.	1r	.
=70	=70	=70	=70
1r	.	1r	.
=71	=71	=71	=71
1r	.	4r	.
.	.	4e	Be
.	.	2d#	my
=72	=72	=72	=72
4.r	.	8c#	Be
.	.	4c#	my
16r	.	[8d#	ba-
[16g#	Be	.	.
16g#]	_	4d#]	_
8.f#	my	.	.
16e	li-	8e	-by
8f#	-ttle	.	.
.	.	8r	.
[16g#	ba-	.	.
=73	=73	=73	=73
8g#]	_	4r	.
[4.e	-by	.	.
.	.	4e	My
2e]	_	4.d#	one
.	.	8d#	and
=74	=74	=74	=74
4.r	.	4c#	on-
.	.	8c#	-ly
16f#	Oh	[8d#	ba-
16g#	_	.	.
16f#	_	4d#]	_
8e	_	.	.
[16f#	_	.	.
8f#]	_	8e	-by
16g#	_	8r	.
16f#	_	.	.
=75	=75	=75	=75
8e	_	4r	.
8f#	_	.	.
2.e	_	4e	Be
.	.	2d#	my
=76	=76	=76	=76
4.r	.	8c#	Be
.	.	4c#	my
16g#	Oh	[8d#	ba-
16a	_	.	.
8g#	_	4d#]	_
4f#	_	.	.
.	.	8e	-by
8a	_	8r	.
=77	=77	=77	=77
8a	_	4r	.
8a	_	.	.
8a	_	4e	My
8a	_	.	.
8a	_	4.d#	one
8r	.	.	.
8r	.	.	.
8a	Ooh	8d#	and
=78	=78	=78	=78
4b	Woh	4c#	on-
4a	oh	8c#	-ly
.	.	8f#	ba-
4g#	oh	4g#	_
4f#	oh	8f#	-by
.	.	8r	.
=79	=79	=79	=79
[1e	oh	4r	.
.	.	4e	Be
.	.	2d#	my
=80	=80	=80	=80
4e]	_	8c#	Be
.	.	4c#	my
8r	.	.	.
16g#	Oh	[8d#	ba-
16f#	_	.	.
8e	_	4d#]	_
8e	oh	.	.
8f#	_	8e	-by
[8e	_	8r	.
=81	=81	=81	=81
1e]	_	4r	.
.	.	4e	My
.	.	4.d#	one
.	.	8d#	and
=82	=82	=82	=82
4.r	.	4c#	on-
.	.	8c#	-ly
[8g#	Oh	[8d#	ba-
16g#]	_	4d#]	_
8f#	_	.	.
[16e	_	.	.
16e]	_	8e	-by
8.f#	_	.	.
.	.	8r	.
=83	=83	=83	=83
16g#	_	4r	.
16f#	_	.	.
8e	_	.	.
8f#	Oh	4e	Be
[8e	_	.	.
2e]	_	2d#	my
=84	=84	=84	=84
4.r	.	8c#	Be
.	.	4c#	my
8a	Be	[8d#	ba-
6a	my	4d#]	_
6g#	ba-	.	.
.	.	8e	-by
6f#	-by	.	.
.	.	8r	.
=85	=85	=85	=85
4.a	now	4r	.
.	.	4e	My
16g#	_	.	.
16a	_	.	.
4f#	_	4.d#	one
4r	.	.	.
.	.	8d#	and
=86	=86	=86	=86
1r	.	4c#	on-
.	.	8c#	-ly
.	.	8f#	ba-
.	.	4g#	_
.	.	8f#	-by
.	.	8r	.
r;	.	r;	.
r;	.	r;	.
*-	*-	*-	*-
!!!ENC: Nathaniel Condit-Schultz
!!!MBID: f3bac840-b32d-4a4d-90e1-19c17a9f3ec6
